icons/logo-twitter.svg

<svg width="24" height="24" viewBox="0 0 24 24" fill="none" xmlns="http://www.w3.org/2000/svg">
<path d="M22 4.11039C21 4.59946 20.02 4.79808 19 5.09851C17.879 3.83591 16.217 3.76604 14.62 4.36291C13.023 4.95977 11.977 6.41899 12 8.0928V9.0909C8.755 9.17374 5.865 7.69855 4 5.09851C4 5.09851 -0.182 12.5174 8 16.0776C6.128 17.3222 4.261 18.1616 2 18.0738C5.308 19.8734 8.913 20.4922 12.034 19.5879C15.614 18.5499 18.556 15.872 19.685 11.8606C20.0218 10.6406 20.189 9.38021 20.182 8.11476C20.18 7.86623 21.692 5.34803 22 4.10939V4.11039Z" stroke="#1E293B" stroke-width="2" stroke-linecap="round" stroke-linejoin="round"/>
</svg>

<svg
  width="24"
  height="24"
  viewBox="0 0 24 24"
  xmlns="http://www.w3.org/2000/svg"
  fill="none"
  stroke="currentColor"
  stroke-width="2"
  stroke-linecap="round"
  stroke-linejoin="round"
>
  <path d="M22 4.11c-1 .49-1.98.688-3 .989-1.121-1.263-2.783-1.333-4.38-.736S11.977 6.419 12 8.093v.998c-3.245.083-6.135-1.392-8-3.992 0 0-4.182 7.418 4 10.979-1.872 1.244-3.739 2.084-6 1.996 3.308 1.8 6.913 2.418 10.034 1.514 3.58-1.038 6.522-3.716 7.651-7.727.337-1.22.504-2.48.497-3.746-.002-.249 1.51-2.767 1.818-4.006v.001z" />
</svg>
